X: 3240
T: FLANAGAN'S JIG
R: Jig.
%R: jig
B: James Kerr "Merry Melodies" v.3 p.27 #240
Z: 2016 John Chambers <jc:trillian.mit.edu>
M: 6/8
L: 1/8
K: D
|:\
Add Bdd | Add Bdd |\
ABc def |[1 gee e3 :|[2 edd d3 |]\
dfa agf | ged cBA |
dfa agf | gab a2f |\
gbg faf | efd cBA |\
ABc def | edd d3 :|

%%sep 1 1 500
%%sep 1 1 500

